X:5888
T:Gan Ainm
R:Reel
S:Francis Lynne
H:
N:
D:Milltown Session
Z:Adrian Scahill
M:4/4
L:1/8
K:G
ABAG EGAB|c2ed cAGc|ABAG EFGB|1 Add^c d2d2:|2 Add^c d3B||\
cdeg gagf|ecgc ecce|cdeg gagg|fdad fddB|\
cdeg gagg|ecgc ecc2|afge fde^c|Add^c d2d2||
